src/assets/images/consult.svg

<svg width="78" height="78" viewBox="0 0 78 78" fill="none" xmlns="http://www.w3.org/2000/svg">
<path d="M30.2324 4.32129C35.3982 -0.773839 43.7766 -0.773786 48.9424 4.32129L49.2539 4.62793C54.4157 9.7192 54.4155 17.9711 49.2539 23.0625L14.0371 57.7969L4.37109 48.2637C-0.790516 43.1723 -0.790636 34.9204 4.37109 29.8291L30.2324 4.32129Z" stroke="#B2282F"/>
<path d="M73.6289 29.7363C78.7905 34.8277 78.7906 43.0796 73.6289 48.1709L47.7676 73.6787C42.6019 78.7738 34.2234 78.7738 29.0576 73.6787L28.7461 73.3721C23.5843 68.2808 23.5845 60.0289 28.7461 54.9375L63.9619 20.2021L73.6289 29.7363Z" stroke="#B2282F"/>
</svg>

<svg xmlns="http://www.w3.org/2000/svg" width="78" height="78" fill="none"><path stroke="#B2282F" d="M30.232 4.321c5.166-5.095 13.545-5.095 18.71 0l.312.307a12.91 12.91 0 0 1 0 18.435L14.037 57.797l-9.666-9.533a12.91 12.91 0 0 1 0-18.435zM73.629 29.736a12.91 12.91 0 0 1 0 18.435L47.768 73.679c-5.166 5.095-13.545 5.095-18.71 0l-.312-.307a12.91 12.91 0 0 1 0-18.434l35.216-34.736z"/></svg>
